X:1
T:Schwandärai-Juiz (Mitleid-Juiz 2014)  Bb
T:André Rohrer
T:Dirigenten-Notiz: Edi Gasser
C:Unterwalden (CH)
%%partsbox
P:ABAC
R:Naturjodel
M:2/4+3/4
L:1/4
K:Bb
Q:1/4=70
[P:A] "getragen" FE | D2F | DF/B/ |d>c|B2|FDF | f>d|c2|
Ffd | B>c|d>c| !fermata!B2 | FE|D>C|D2|FB| 
d>e|d2| Fd/f/ |c>d|cF|fd/c/| (B2| B)z|]
M:4/4
[P:B] "fröhlich, zügig" e>GGc | e2fe/c/ | d>cBd | F>DFB | c>BAc | 
F>EFe | d>fdc | B3z | e>GGc | ef/e/dc | 
B>FFB | de/d/cB | A>FFA | ef/e/dc/d/ | (B4 | B2)zz || 
M:4/4
[P:C]  "_freudig -bewegt" F/E/ | DF/B/d>B | c/d/ c/B/A2 | FA/c/e>e | d/e/ d/c/B2 | 
FD/F/B>B | A/c/ A/G/F2 | e>fdc | B2FD/F/ | 
B>d e/f/ e/d/ | c2FE/F/ | A>c d/e/ d/c/ | B2FD/F/ | 
B>Bcd | e2e/e/ d/c/ | B/F/ F/B/dc/A/ | B3 |] 
W:
W:Reihenfolge: A - B - A - C
W:
W:UJV-Naturjodelsammlung: Code-Nr: 68-01
W:http://www.naturjodler.ch/code 68.htm  (with AUDIO)
W:notiert Edi Gasser. %Angaben: 
%October 11, 2018

